brandFactory_export/3.Masa/Virus_3Masa.svg

<?xml version="1.0" encoding="UTF-8"?>
<svg width="24px" height="24px" viewBox="0 0 24 24" version="1.1" xmlns="http://www.w3.org/2000/svg" xmlns:xlink="http://www.w3.org/1999/xlink">
    <title>3.Masa/Virus_3Masa</title>
    <g id="Symbols" stroke="none" stroke-width="1" fill="none" fill-rule="evenodd">
        <g id="3.Masa/Virus_3Masa" fill="#5CB615" fill-rule="nonzero">
            <path d="M9.40504202,16.4302521 C9.79831933,16.3092437 10.2151261,16.5277311 10.3361345,16.9243697 C10.4537815,17.3109244 10.2386555,17.7243697 9.84201681,17.8420168 L8.72268908,18.1882353 C8.80336134,18.692437 8.78319328,19.1260504 8.69243697,19.502521 L9.64369748,20.0067227 C10.010084,20.194958 10.1478992,20.6487395 9.94957983,21.005042 C9.82184874,21.2638655 9.56302521,21.4016807 9.29747899,21.4016807 C9.17983193,21.4016807 9.05882353,21.3815126 8.9512605,21.3210084 L7.98319328,20.810084 C7.64705882,21.1630252 7.25042017,21.4117647 6.93445378,21.5798319 L7.28067227,22.7058824 C7.39831933,23.092437 7.18319328,23.5058824 6.78655462,23.6336134 C6.71596639,23.6537815 6.63865546,23.6638655 6.56806723,23.6638655 C6.25210084,23.6638655 5.95630252,23.4554622 5.85546218,23.1394958 L5.5092437,22.0134454 C5.34117647,22.0336134 5.16302521,22.0537815 4.96470588,22.0537815 C4.72605042,22.0537815 4.47058824,22.0235294 4.21176471,21.9663866 L3.68739496,22.9445378 C3.55966387,23.189916 3.30084034,23.3411765 3.03529412,23.3411765 C2.91764706,23.3411765 2.79663866,23.3109244 2.68907563,23.2504202 C2.33277311,23.0621849 2.19495798,22.6084034 2.37983193,22.2554622 L2.89411765,21.2773109 C2.60840336,21.0218487 2.34957983,20.6756303 2.13109244,20.2218487 C2.13109244,20.2218487 2.13109244,20.2319328 2.1210084,20.2319328 L0.991596639,20.5781513 C0.91092437,20.6084034 0.843697479,20.6184874 0.773109244,20.6184874 C0.457142857,20.6184874 0.161344538,20.4134454 0.0605042017,20.0941176 C-0.0571428571,19.7008403 0.157983193,19.2840336 0.554621849,19.1663866 L1.68403361,18.8201681 C1.69411765,18.810084 1.69411765,18.8201681 1.70420168,18.810084 C1.62352941,18.3159664 1.63361345,17.892437 1.71428571,17.5159664 L0.756302521,17.0016807 C0.389915966,16.8134454 0.25210084,16.3596639 0.450420168,16.0033613 C0.638655462,15.6369748 1.09243697,15.4991597 1.4487395,15.687395 L2.41008403,16.2016807 C2.74621849,15.8352941 3.14285714,15.589916 3.46890756,15.4319328 L3.12268908,14.3058824 C3.00504202,13.9193277 3.22352941,13.5058824 3.61680672,13.3882353 C4.00336134,13.2672269 4.42016807,13.4857143 4.54789916,13.8722689 L4.89411765,15.0084034 C5.06218487,14.9882353 5.24033613,14.9680672 5.4487395,14.9680672 C5.67394958,14.9680672 5.93277311,14.9983193 6.19159664,15.0554622 L6.70588235,14.0773109 C6.90420168,13.7142857 7.34789916,13.5731092 7.71428571,13.7613445 C8.07058824,13.9596639 8.20840336,14.4033613 8.02016807,14.7697479 L7.51596639,15.7277311 C7.80168067,15.9831933 8.07058824,16.3327731 8.28907563,16.7865546 L9.40504202,16.4302521 Z M23.1294118,14.4638655 C23.5226891,14.5915966 23.7445378,15.0084034 23.6235294,15.3915966 C23.5226891,15.707563 23.2268908,15.9159664 22.9109244,15.9159664 C22.8436975,15.9159664 22.7630252,15.9058824 22.6957983,15.8756303 L21.7176471,15.5697479 C21.5966387,15.8857143 21.4117647,16.1915966 21.1831933,16.487395 L21.9361345,17.2403361 C22.2218487,17.5260504 22.2218487,17.989916 21.9361345,18.2857143 C21.7882353,18.4235294 21.6,18.5042017 21.4117647,18.5042017 C21.2235294,18.5042017 21.0352941,18.4235294 20.887395,18.2857143 L20.1445378,17.5462185 C19.8890756,17.7546218 19.5798319,17.9495798 19.2336134,18.0907563 L19.5294118,19.0487395 C19.6470588,19.4319328 19.4319328,19.8588235 19.0453782,19.9764706 C18.9647059,19.9966387 18.897479,20.0067227 18.8168067,20.0067227 C18.5008403,20.0067227 18.2117647,19.8117647 18.1142857,19.4957983 L17.7579832,18.3798319 C17.4117647,18.3697479 17.0252101,18.3092437 16.6117647,18.1714286 C16.4739496,18.1310924 16.3361345,18.0739496 16.1848739,18.0134454 L16.097479,18.7529412 C16.0571429,19.1294118 15.7310924,19.394958 15.3647059,19.394958 L15.2773109,19.394958 C14.8705882,19.3445378 14.5747899,18.9714286 14.6352941,18.5647059 L14.7932773,17.3008403 C14.3663866,17.0352941 13.9226891,16.7193277 13.4487395,16.3428571 L12.9445378,17.3411765 C12.8168067,17.5966387 12.5512605,17.7445378 12.2823529,17.7445378 C12.1747899,17.7445378 12.0571429,17.7142857 11.9462185,17.6638655 C11.5798319,17.4756303 11.4319328,17.0319328 11.6201681,16.6655462 L12.2756303,15.3714286 C11.8016807,14.9579832 11.287395,14.4840336 10.7630252,13.9697479 L9.78487395,14.9478992 C9.63697479,15.0857143 9.4487395,15.1663866 9.2605042,15.1663866 C9.07226891,15.1663866 8.87394958,15.0857143 8.73613445,14.9478992 C8.45042017,14.6521008 8.45042017,14.1882353 8.73613445,13.902521 L9.71764706,12.9243697 C9.19327731,12.3932773 8.72941176,11.8890756 8.30252101,11.405042 L7.00504202,12.0571429 C6.90756303,12.1142857 6.78991597,12.1344538 6.6789916,12.1344538 C6.40336134,12.1344538 6.14453782,11.9865546 6.01680672,11.7310924 C5.82857143,11.3647059 5.97647059,10.9210084 6.34285714,10.7327731 L7.33109244,10.2285714 C7.24369748,10.1109244 7.15294118,10 7.06554622,9.88235294 C6.80672269,9.53613445 6.59159664,9.21344538 6.39327731,8.89411765 L5.11596639,9.05210084 L5.01848739,9.05210084 C4.65210084,9.05210084 4.33613445,8.77647059 4.28571429,8.4 C4.23865546,7.99663866 4.52436975,7.6302521 4.93109244,7.57983193 L5.68403361,7.48235294 C5.62352941,7.35462185 5.58655462,7.22689076 5.54621849,7.10588235 C5.40840336,6.6789916 5.34789916,6.28571429 5.33781513,5.92941176 L4.19159664,5.56638655 C3.79495798,5.44537815 3.58655462,5.03193277 3.70756303,4.63865546 C3.82521008,4.25210084 4.24201681,4.02689076 4.63865546,4.15462185 L5.63697479,4.45714286 C5.77478992,4.1210084 5.97310924,3.82521008 6.17142857,3.57983193 L5.39831933,2.8 C5.11260504,2.51428571 5.11260504,2.04033613 5.39831933,1.75462185 C5.68403361,1.46890756 6.16134454,1.46890756 6.44705882,1.75462185 L7.2302521,2.53445378 C7.48907563,2.33613445 7.77478992,2.14789916 8.11092437,2.01008403 L7.79495798,0.991596639 C7.66722689,0.608403361 7.88571429,0.191596639 8.28235294,0.0638655462 C8.66890756,-0.0537815126 9.09243697,0.161344538 9.21344538,0.54789916 L9.57983193,1.73109244 C9.93613445,1.74117647 10.312605,1.80168067 10.7260504,1.92941176 C10.8571429,1.96638655 10.9848739,2.01680672 11.1226891,2.06722689 L11.2201681,1.28739496 C11.2806723,0.884033613 11.6470588,0.594957983 12.0504202,0.645378151 C12.4571429,0.705882353 12.7428571,1.06890756 12.6957983,1.47563025 L12.5277311,2.79663866 C12.9512605,3.05210084 13.3983193,3.37142857 13.8621849,3.73445378 L14.3865546,2.69915966 C14.5647059,2.33277311 15.0084034,2.18487395 15.3848739,2.37310924 C15.7512605,2.56134454 15.8890756,3.00504202 15.7109244,3.37142857 L15.0386555,4.70252101 C15.512605,5.11932773 16.0168067,5.58319328 16.5411765,6.10420168 L17.5495798,5.08571429 C17.8453782,4.8 18.3092437,4.8 18.5983193,5.08571429 C18.8941176,5.38151261 18.8941176,5.84537815 18.5983193,6.13109244 L17.589916,7.1394958 C18.1042017,7.6605042 18.5680672,8.16806723 18.994958,8.63865546 L20.3294118,7.9697479 C20.6957983,7.79159664 21.1428571,7.9394958 21.3310924,8.30588235 C21.5092437,8.67226891 21.3613445,9.11596639 20.994958,9.29411765 L19.9663866,9.80840336 C20.3327731,10.2823529 20.6588235,10.7260504 20.9176471,11.1529412 L22.2319328,10.9848739 C22.6352941,10.9445378 23.005042,11.2201681 23.0521008,11.6268908 C23.112605,12.0302521 22.8168067,12.4067227 22.410084,12.4571429 L21.6470588,12.5546218 C21.8655462,13.1092437 21.9831933,13.6201681 22.0033613,14.1042017 L23.1294118,14.4638655 L23.1294118,14.4638655 Z" id="Virus_3Masa"></path>
        </g>
    </g>
</svg>

<svg width="24" height="24" viewBox="0 0 24 24" xmlns="http://www.w3.org/2000/svg"><path d="M9.405 16.43a.743.743 0 01.931.494.733.733 0 01-.494.918l-1.12.346c.081.504.061.938-.03 1.315l.952.504a.727.727 0 01.306.998.718.718 0 01-.653.397.7.7 0 01-.346-.081l-.968-.51a4.119 4.119 0 01-1.049.769l.347 1.126a.748.748 0 01-.494.928.755.755 0 01-.931-.494l-.347-1.127c-.168.02-.346.04-.544.04-.239 0-.494-.03-.753-.087l-.525.979a.743.743 0 01-.652.396.746.746 0 01-.655-1.086l.514-.978c-.286-.255-.544-.601-.763-1.055 0 0 0 .01-.01.01l-1.13.346a.593.593 0 01-.218.04.74.74 0 01-.218-1.452l1.129-.346c.01-.01.01 0 .02-.01-.08-.494-.07-.918.01-1.294l-.958-.514a.727.727 0 01-.306-.999.74.74 0 01.999-.316l.961.515a3.523 3.523 0 011.059-.77l-.346-1.126c-.118-.387.1-.8.494-.918a.751.751 0 01.93.484l.347 1.136c.168-.02.346-.04.555-.04.225 0 .484.03.743.087l.514-.978a.754.754 0 011.008-.316.756.756 0 01.306 1.009l-.504.958c.286.255.555.605.773 1.059l1.116-.357zm13.724-1.966a.75.75 0 01.495.928.755.755 0 01-.713.524.542.542 0 01-.215-.04l-.978-.306a3.663 3.663 0 01-.535.917l.753.753a.745.745 0 010 1.046.78.78 0 01-.524.218.78.78 0 01-.525-.218l-.742-.74a3.617 3.617 0 01-.911.545l.295.958a.747.747 0 01-.484.927.89.89 0 01-.228.03.727.727 0 01-.703-.51l-.356-1.116a3.99 3.99 0 01-1.146-.209c-.138-.04-.276-.097-.427-.158l-.088.74a.729.729 0 01-.732.642h-.088a.735.735 0 01-.642-.83l.158-1.264c-.427-.266-.87-.582-1.344-.958l-.504.998a.742.742 0 01-.999.323.74.74 0 01-.326-.998l.656-1.295a35.666 35.666 0 01-1.513-1.401l-.978.978a.78.78 0 01-.524.218.761.761 0 01-.525-.218.745.745 0 010-1.045l.982-.979a36.563 36.563 0 01-1.415-1.519l-1.298.652a.649.649 0 01-.326.077.74.74 0 01-.336-1.402l.988-.503c-.087-.118-.178-.229-.265-.347a13.633 13.633 0 01-.673-.988l-1.277.158h-.098a.745.745 0 01-.732-.652.74.74 0 01.645-.82l.753-.098c-.06-.127-.097-.255-.138-.376a4.201 4.201 0 01-.208-1.177l-1.146-.363a.734.734 0 01-.484-.927.737.737 0 01.93-.484l.999.302c.138-.336.336-.632.534-.877l-.773-.78a.745.745 0 010-1.045.749.749 0 011.05 0l.782.78a3.84 3.84 0 01.88-.525L7.796.992a.737.737 0 01.487-.928.751.751 0 01.931.484L9.58 1.73c.356.01.733.07 1.146.198.131.037.259.088.397.138l.097-.78a.752.752 0 01.83-.642c.407.06.693.424.646.83l-.168 1.322c.423.255.87.574 1.334.937l.525-1.035a.735.735 0 01.998-.326.75.75 0 01.326.998l-.672 1.332c.474.416.978.88 1.502 1.401l1.009-1.018a.749.749 0 011.048 0 .727.727 0 010 1.045L17.59 7.14c.514.522.978 1.03 1.405 1.5l1.334-.67a.757.757 0 011.002.337c.178.366.03.81-.336.988l-1.029.514c.367.474.693.918.952 1.345l1.314-.168a.74.74 0 01.82.642.737.737 0 01-.642.83l-.763.098c.219.554.336 1.065.356 1.55l1.126.359z" fill="#5CB615" fill-rule="nonzero"/></svg>
